src/assets/img/icons/duotone-icons/Electric/Hair-dryer.svg

<?xml version="1.0" encoding="UTF-8"?>
<svg width="24px" height="24px" viewBox="0 0 24 24" version="1.1" xmlns="http://www.w3.org/2000/svg" xmlns:xlink="http://www.w3.org/1999/xlink">
    <!-- Generator: Sketch 52.2 (67145) - http://www.bohemiancoding.com/sketch -->
    <title>Stockholm-icons / Electric / Нair-dryer</title>
    <desc>Created with Sketch.</desc>
    <g id="Stockholm-icons-/-Electric-/-Нair-dryer" stroke="none" stroke-width="1" fill="none" fill-rule="evenodd">
        <rect id="bound" x="0" y="0" width="24" height="24"></rect>
        <path d="M4.58533569,12.781583 L9.41496482,11.4874877 L11.3383193,18.6655444 C11.6956738,19.9992097 10.9042176,21.3700521 9.57055236,21.7274066 C8.2368871,22.0847611 6.86604471,21.2933049 6.50869018,19.9596397 L4.58533569,12.781583 Z M12.382617,14.4115723 C13.0494497,14.232895 13.7348709,14.6286231 13.9135481,15.2954558 L14.0429577,15.7784187 C14.2216349,16.4452513 13.8259068,17.1306725 13.1590742,17.3093498 C12.4922415,17.488027 11.8068203,17.0922989 11.6281431,16.4254663 L11.4987336,15.9425034 C11.3200563,15.2756708 11.7157844,14.5902496 12.382617,14.4115723 Z M18,6 L21,5 L21,12 L18,11 L18,6 Z" id="Combined-Shape" fill="#335EEA" opacity="0.3"></path>
        <path d="M8.44472222,4.77781746 L17,6 L17,11 L8.28838171,13.4890338 C6.08529918,14.1184859 3.78907613,12.8428065 3.15962397,10.6397239 C3.05372478,10.2690768 3,9.88547887 3,9.5 C3,6.86553287 5.13565758,4.72987529 7.77012471,4.72987529 C7.99584162,4.72987529 8.22127388,4.74589627 8.44472222,4.77781746 Z M7,11 C8.1045695,11 9,10.1045695 9,9 C9,7.8954305 8.1045695,7 7,7 C5.8954305,7 5,7.8954305 5,9 C5,10.1045695 5.8954305,11 7,11 Z" id="Combined-Shape" fill="#335EEA"></path>
    </g>
</svg>

<svg width="24" height="24" viewBox="0 0 24 24" xmlns="http://www.w3.org/2000/svg"><g fill="none" fill-rule="evenodd"><path d="M0 0h24v24H0z"/><path d="M4.585 12.782l4.83-1.295 1.923 7.179a2.5 2.5 0 01-4.83 1.294l-1.923-7.178zm7.798 1.63a1.25 1.25 0 011.53.883l.13.483a1.25 1.25 0 01-2.415.647l-.13-.482a1.25 1.25 0 01.885-1.531zM18 6l3-1v7l-3-1V6z" fill="#335EEA" opacity=".3"/><path d="M8.445 4.778L17 6v5l-8.712 2.489A4.149 4.149 0 013 9.5a4.77 4.77 0 015.445-4.722zM7 11a2 2 0 100-4 2 2 0 000 4z" fill="#335EEA"/></g></svg>
